projects/seb-pictograms/svg/light/83-Picto-Light_black.svg

<svg xmlns="http://www.w3.org/2000/svg" viewBox="0 0 170 170"><path d="M38 154h-.6a1.5 1.5 0 01-.9-1.4v-27.7H19.3a1.5 1.5 0 01-1.5-1.5V17.5a1.5 1.5 0 011.5-1.5h131.4a1.5 1.5 0 011.5 1.5v105.9a1.5 1.5 0 01-1.5 1.5H67.6L39 153.6a1.5 1.5 0 01-1 .4zm-17.2-32.1H38a1.5 1.5 0 011.5 1.5v25.5l26.4-26.5a1.5 1.5 0 011.1-.4h82.2V19H20.8z"/><path d="M48.8 79.3a9.1 9.1 0 119.1-9.1 9.1 9.1 0 01-9.1 9.1zm0-15.1a6.1 6.1 0 106.1 6.1 6.1 6.1 0 00-6.1-6.1zm72.4 15.1a9.1 9.1 0 119.1-9.1 9.1 9.1 0 01-9.1 9.1zm0-15.1a6.1 6.1 0 106.1 6.1 6.1 6.1 0 00-6.1-6.1zM85 79.3a9.1 9.1 0 119.1-9.1 9.1 9.1 0 01-9.1 9.1zm0-15.1a6.1 6.1 0 106.1 6.1 6.1 6.1 0 00-6.1-6.1z"/></svg>

<svg id="PIKTO_LIGHT" xmlns="http://www.w3.org/2000/svg" viewBox="0 0 170 170"><title>light_black</title><path d="M38,154h-.6a1.5,1.5,0,0,1-.9-1.4V124.9H19.3a1.5,1.5,0,0,1-1.5-1.5V17.5A1.5,1.5,0,0,1,19.3,16H150.7a1.5,1.5,0,0,1,1.5,1.5V123.4a1.5,1.5,0,0,1-1.5,1.5H67.6L39,153.6A1.5,1.5,0,0,1,38,154ZM20.8,121.9H38a1.5,1.5,0,0,1,1.5,1.5v25.5l26.4-26.5a1.5,1.5,0,0,1,1.1-.4h82.2V19H20.8Z"/><path d="M48.8,79.3a9.1,9.1,0,1,1,9.1-9.1A9.1,9.1,0,0,1,48.8,79.3Zm0-15.1a6.1,6.1,0,1,0,6.1,6.1A6.1,6.1,0,0,0,48.8,64.2Z"/><path d="M121.2,79.3a9.1,9.1,0,1,1,9.1-9.1A9.1,9.1,0,0,1,121.2,79.3Zm0-15.1a6.1,6.1,0,1,0,6.1,6.1A6.1,6.1,0,0,0,121.2,64.2Z"/><path d="M85,79.3a9.1,9.1,0,1,1,9.1-9.1A9.1,9.1,0,0,1,85,79.3Zm0-15.1a6.1,6.1,0,1,0,6.1,6.1A6.1,6.1,0,0,0,85,64.2Z"/></svg>
